dist/uniapp/mp-weixin/static/images/icons/play.svg

<svg xmlns="http://www.w3.org/2000/svg" xmlns:xlink="http://www.w3.org/1999/xlink" width="36" height="36" viewBox="0 0 36 36" fill="none"><path d="M18 0C8.05882 0 0 8.05882 0 18C0 27.9412 8.05882 36 18 36C27.9412 36 36 27.9412 36 18C36 8.05882 27.9412 0 18 0ZM25.538 19.1951L15.3107 25.9451C15.2974 25.9539 15.2838 25.9626 15.2701 25.9709C15.2564 25.9793 15.2426 25.9875 15.2286 25.9954C15.2146 26.0033 15.2005 26.011 15.1863 26.0184C15.1721 26.0258 15.1577 26.0331 15.1432 26.04C15.1288 26.047 15.1142 26.0537 15.0995 26.0601C15.0848 26.0666 15.07 26.0728 15.055 26.0788C15.0402 26.0848 15.0251 26.0905 15.01 26.096C14.995 26.1014 14.9798 26.1067 14.9645 26.1116C14.9492 26.1166 14.9339 26.1212 14.9184 26.1257C14.903 26.1301 14.8874 26.1343 14.8719 26.1382C14.8563 26.1421 14.8407 26.1458 14.825 26.1492C14.8093 26.1526 14.7935 26.1557 14.7777 26.1585C14.7619 26.1614 14.7461 26.164 14.7302 26.1663C14.7143 26.1687 14.6984 26.1707 14.6824 26.1725C14.6665 26.1743 14.6505 26.1758 14.6345 26.1771C14.6184 26.1783 14.6024 26.1793 14.5864 26.18C14.5704 26.1808 14.5543 26.1812 14.5382 26.1813C14.5222 26.1815 14.5061 26.1814 14.49 26.1811C14.474 26.1807 14.4579 26.1801 14.4419 26.1791C14.4259 26.1783 14.4099 26.1771 14.3939 26.1756C14.3779 26.1742 14.3619 26.1725 14.346 26.1705C14.33 26.1685 14.3142 26.1663 14.2983 26.1637C14.2824 26.1612 14.2666 26.1584 14.2508 26.1554C14.2351 26.1523 14.2194 26.149 14.2037 26.1454C14.1881 26.1419 14.1725 26.138 14.1569 26.1339C14.1414 26.1298 14.126 26.1255 14.1106 26.1208C14.0952 26.1162 14.0799 26.1113 14.0647 26.1062C14.0495 26.1011 14.0343 26.0957 14.0193 26.09C14.0043 26.0844 13.9894 26.0785 13.9745 26.0723C13.9597 26.0662 13.9449 26.0598 13.9303 26.0531C13.9157 26.0465 13.9012 26.0396 13.8868 26.0324C13.8724 26.0253 13.8581 26.0179 13.844 26.0104C13.8299 26.0028 13.8159 25.9949 13.802 25.9868C13.7881 25.9788 13.7744 25.9704 13.7608 25.9618C13.7472 25.9533 13.7337 25.9445 13.7204 25.9355C13.7072 25.9266 13.694 25.9173 13.681 25.9079C13.668 25.8984 13.6552 25.8888 13.6425 25.8789C13.6298 25.869 13.6174 25.8589 13.605 25.8487C13.5927 25.8384 13.5806 25.8279 13.5686 25.8172C13.5566 25.8065 13.5448 25.7956 13.5332 25.7845C13.5216 25.7734 13.5102 25.7621 13.4989 25.7506C13.4877 25.7391 13.4767 25.7275 13.4658 25.7156C13.455 25.7037 13.4444 25.6917 13.4339 25.6795C13.4235 25.6673 13.4133 25.6549 13.4033 25.6423C13.3933 25.6298 13.3835 25.6171 13.3739 25.6042C13.3643 25.5913 13.3549 25.5782 13.3458 25.565C13.3367 25.5519 13.3277 25.5385 13.319 25.525C13.3104 25.5115 13.3019 25.4979 13.2936 25.484C13.2854 25.4703 13.2774 25.4564 13.2696 25.4423C13.2619 25.4282 13.2543 25.4141 13.247 25.3997C13.2397 25.3854 13.2327 25.371 13.2259 25.3565C13.2191 25.3419 13.2125 25.3273 13.2062 25.3125C13.1999 25.2978 13.1938 25.2829 13.188 25.2679C13.1822 25.2529 13.1766 25.2379 13.1713 25.2227C13.166 25.2076 13.161 25.1923 13.1562 25.177C13.1514 25.1617 13.1469 25.1462 13.1426 25.1307C13.1383 25.1153 13.1343 25.0998 13.1305 25.0841C13.1268 25.0685 13.1233 25.0529 13.1201 25.0371C13.1168 25.0214 13.1139 25.0056 13.1112 24.9898C13.1085 24.974 13.1061 24.9581 13.1039 24.9421C13.1018 24.9263 13.0999 24.9103 13.0982 24.8943C13.0966 24.8783 13.0953 24.8623 13.0942 24.8463C13.0931 24.8303 13.0923 24.8143 13.0917 24.7982C13.0912 24.7822 13.0909 24.7661 13.0909 24.75L13.0909 11.2513C13.0909 11.2352 13.0912 11.2192 13.0917 11.2031C13.0923 11.1871 13.0931 11.171 13.0942 11.155C13.0952 11.1389 13.0966 11.1229 13.0982 11.1069C13.0998 11.091 13.1017 11.075 13.1039 11.0591C13.106 11.0432 13.1085 11.0273 13.1112 11.0115C13.1138 10.9957 13.1168 10.9798 13.12 10.9641C13.1232 10.9484 13.1267 10.9327 13.1305 10.9171C13.1342 10.9015 13.1382 10.8859 13.1425 10.8704C13.1468 10.8549 13.1514 10.8395 13.1561 10.8242C13.1609 10.8089 13.166 10.7936 13.1713 10.7784C13.1766 10.7633 13.1822 10.7482 13.1879 10.7332C13.1938 10.7183 13.1998 10.7034 13.2061 10.6886C13.2125 10.6739 13.219 10.6592 13.2258 10.6446C13.2326 10.6301 13.2397 10.6157 13.247 10.6013C13.2543 10.587 13.2618 10.5729 13.2696 10.5588C13.2773 10.5447 13.2854 10.5308 13.2936 10.517C13.3018 10.5032 13.3103 10.4896 13.319 10.4761C13.3277 10.4626 13.3366 10.4492 13.3458 10.436C13.3549 10.4228 13.3643 10.4097 13.3738 10.3969C13.3834 10.384 13.3932 10.3712 13.4033 10.3587C13.4133 10.3461 13.4235 10.3337 13.4339 10.3215C13.4444 10.3093 13.455 10.2973 13.4658 10.2854C13.4767 10.2736 13.4877 10.2619 13.4989 10.2504C13.5102 10.2389 13.5216 10.2276 13.5332 10.2165C13.5448 10.2054 13.5566 10.1945 13.5686 10.1838C13.5806 10.1731 13.5927 10.1626 13.6051 10.1523C13.6174 10.142 13.6299 10.1319 13.6425 10.122C13.6552 10.1122 13.6681 10.1025 13.681 10.093C13.6941 10.0836 13.7072 10.0744 13.7205 10.0654C13.7338 10.0564 13.7473 10.0476 13.7608 10.0391C13.7745 10.0305 13.7882 10.0222 13.8021 10.0141C13.816 10.006 13.83 9.99818 13.8441 9.99055C13.8583 9.98296 13.8726 9.97556 13.887 9.96842C13.9014 9.96129 13.9159 9.95442 13.9305 9.94775C13.9451 9.94115 13.9599 9.93475 13.9747 9.92857C13.9895 9.92244 14.0045 9.91657 14.0195 9.91089C14.0345 9.90526 14.0497 9.89985 14.0649 9.89471C14.0801 9.88957 14.0954 9.8847 14.1108 9.88006C14.1262 9.87546 14.1417 9.87112 14.1572 9.86698C14.1727 9.86291 14.1883 9.85908 14.204 9.85547C14.2196 9.85191 14.2353 9.84861 14.2511 9.84554C14.2669 9.84251 14.2827 9.83971 14.2985 9.83718C14.3144 9.83469 14.3303 9.83242 14.3463 9.83043C14.3622 9.82847 14.3782 9.82679 14.3942 9.82533C14.4102 9.82387 14.4262 9.82272 14.4423 9.8218C14.4583 9.82092 14.4744 9.82027 14.4904 9.81988C14.5065 9.81954 14.5225 9.81946 14.5386 9.81961C14.5547 9.81981 14.5707 9.82027 14.5868 9.82096C14.6028 9.82169 14.6188 9.82268 14.6349 9.82391C14.6509 9.82521 14.6668 9.82675 14.6828 9.82851C14.6988 9.83031 14.7147 9.83239 14.7306 9.83469C14.7465 9.83706 14.7623 9.83967 14.7781 9.84251C14.7939 9.84539 14.8097 9.84853 14.8254 9.85191C14.8412 9.85528 14.8568 9.85896 14.8723 9.86288C14.8879 9.86679 14.9034 9.87097 14.9189 9.87542C14.9343 9.87987 14.9497 9.88458 14.9649 9.88953C14.9802 9.89452 14.9954 9.89973 15.0105 9.90518C15.0256 9.91066 15.0406 9.91638 15.0555 9.92236C15.0705 9.92834 15.0853 9.9346 15.1 9.94104C15.1147 9.94752 15.1293 9.95423 15.1437 9.96121C15.1582 9.96819 15.1726 9.9754 15.1868 9.98284C15.201 9.99028 15.2151 9.99799 15.2291 10.0059C15.2431 10.0138 15.2569 10.022 15.2706 10.0304C15.2843 10.0388 15.2979 10.0474 15.3112 10.0562L25.5385 16.8062C25.5632 16.8225 25.5872 16.8394 25.6108 16.8572C25.6343 16.8749 25.6573 16.8933 25.6797 16.9124C25.7021 16.9316 25.7239 16.9514 25.7451 16.9718C25.7663 16.9923 25.7868 17.0134 25.8067 17.0352C25.8266 17.057 25.8457 17.0793 25.8642 17.1022C25.8828 17.1251 25.9005 17.1486 25.9176 17.1726C25.9346 17.1967 25.9509 17.2212 25.9665 17.2462C25.982 17.2713 25.9968 17.2968 26.0107 17.3227C26.0247 17.3487 26.0378 17.375 26.0502 17.4018C26.0625 17.4286 26.074 17.4556 26.0847 17.4831C26.0953 17.5106 26.1052 17.5384 26.1141 17.5664C26.1231 17.5945 26.1311 17.6229 26.1383 17.6514C26.1455 17.68 26.1518 17.7088 26.1572 17.7377C26.1627 17.7667 26.1672 17.7958 26.1708 17.825C26.1745 17.8542 26.1772 17.8836 26.179 17.913C26.1808 17.9424 26.1817 17.9718 26.1817 18.0013C26.1817 18.0308 26.1808 18.0602 26.179 18.0896C26.1772 18.119 26.1745 18.1484 26.1708 18.1776C26.1672 18.2068 26.1627 18.236 26.1572 18.2649C26.1518 18.2939 26.1455 18.3226 26.1383 18.3512C26.1311 18.3798 26.1231 18.4081 26.1141 18.4362C26.1052 18.4642 26.0953 18.492 26.0847 18.5195C26.074 18.547 26.0625 18.5741 26.0502 18.6008C26.0378 18.6276 26.0247 18.6539 26.0107 18.6798C25.9968 18.7058 25.982 18.7313 25.9665 18.7563C25.9509 18.7814 25.9346 18.8059 25.9176 18.8299C25.9005 18.854 25.8828 18.8774 25.8642 18.9004C25.8457 18.9233 25.8266 18.9457 25.8067 18.9674C25.7868 18.9892 25.7663 19.0103 25.7451 19.0307C25.7239 19.0512 25.7021 19.071 25.6797 19.0901C25.6573 19.1093 25.6343 19.1277 25.6108 19.1454C25.5872 19.1632 25.5632 19.1802 25.5385 19.1963L25.538 19.1951Z"   fill="#FFFFFF" ></path></svg>

<svg xmlns="http://www.w3.org/2000/svg" width="36" height="36" fill="none"><path fill="#FFF" d="M18 0C8.059 0 0 8.059 0 18s8.059 18 18 18 18-8.059 18-18S27.941 0 18 0m7.538 19.195-10.227 6.75a1 1 0 0 1-.168.095 1 1 0 0 1-.179.072 1.44 1.44 0 0 1-.945-.022 1.3 1.3 0 0 1-.258-.128 1.3 1.3 0 0 1-.262-.211 1.6 1.6 0 0 1-.18-.226 2 2 0 0 1-.113-.212 1.3 1.3 0 0 1-.095-.323 1.5 1.5 0 0 1-.02-.24V11.251a1.6 1.6 0 0 1 .029-.287 1.3 1.3 0 0 1 .068-.23 2 2 0 0 1 .082-.175 1.3 1.3 0 0 1 .164-.237 2 2 0 0 1 .135-.138 1.4 1.4 0 0 1 .318-.216 1.5 1.5 0 0 1 .27-.101 1.6 1.6 0 0 1 .285-.045 1.6 1.6 0 0 1 .289.013 2 2 0 0 1 .234.055 1.6 1.6 0 0 1 .264.116l.082.05 10.228 6.75a1.4 1.4 0 0 1 .427.44 1.46 1.46 0 0 1 .213.667 1.44 1.44 0 0 1-.261.917 1.4 1.4 0 0 1-.38.366"/></svg>
